X:1
T:The Kid on the Mountain
M:9/8
L:1/8
Q:80
C:arr. Kent Hiestand
S:Jig
K:HP
| {g}BAB{g}cBc{Gdc}d2c|
{g}BAB{g}fge{g}fdB|
{g}BAB{g}cBc{Gdc}d2e|  !
{g}fed{g}cedcB{G}A:|
{g}fdfedc{Gdc}d2A|
{g}defa2{GdG}a{g}afd|  !
{g}fdfedc{Gdc}d2e|
{g}fed{g}cedcB{G}A:|
{g}dcd{g}BAB{gBd}B2c|  !
{g}dcd{g}Bcd{g}ecB|1
{g}dcd{g}BcB{gBd}B2{g}d/2e/2|
{g}fed{g}ced{g}cBA:| |  !
|2 {g}dcd{g}edc{Gdc}d2e|
{g}fed{g}c/2d/2ed{g}cBA|]
{g}BGB{gBd}B2c{g}dcd|  !
{g}BGB{G}BcB{g}ecB|
{g}BGB{gBd}B2c{Gdc}d2e|
{g}fed{g}c/2d/2ed{g}cBA:|  !
{g}fec{g}ecB{GAG}A2B|
{g}ABc{g}eaf{g}ecB|
{g}fec{g}ecB{GAG}A2B|  !
{g}fed{g}cedcB{G}A:|

